X: 15
T: Banshee, The
C: James McMahon
Z: Benjamin Glauser
S: https://thesession.org/tunes/8#setting46954
R: reel
M: 4/4
L: 1/8
K: Gmaj
|:G3D ED[B,B][DA]|GFGB d2 Bd|eged BAGA|BAGE ED[B,B][DA]|
G3 D ED[B,B][DA]|GFGB d2 Bd|eged BAGA|1 BAGE ED[B,B][DA]:|2 BAGE ED D2||
|:eaag efge|dBBA B3 d|eB ~B2 gBfB|eBBA B3 d|
eaag efge|dBBA B3 d|eged BAGA|1 BAGE EDD2:|2 BAGE ED[B,B][DA]||

